src/icons/command-barrier.svg

<?xml version="1.0" encoding="UTF-8"?>
<svg width="14px" height="13px" viewBox="0 0 14 13" version="1.1" xmlns="http://www.w3.org/2000/svg" xmlns:xlink="http://www.w3.org/1999/xlink">
    <!-- Generator: Sketch 59 (86127) - https://sketch.com -->
    <title>HDL/Icon/Standard/Command/barrier</title>
    <desc>Created with Sketch.</desc>
    <g id="Colors" stroke="none" stroke-width="1" fill="none" fill-rule="evenodd">
        <g id="Command-Icons" transform="translate(-122.000000, -313.000000)" fill="#4D5969">
            <g id="Barrier" transform="translate(101.000000, 295.000000)">
                <g id="HDL/Icon/Standard/Command/barrier" transform="translate(21.000000, 18.000000)">
                    <path d="M4,1.73472348e-18 C3.44771525,1.73472348e-18 3,0.44771525 3,1 C3,1.55228475 3.44771525,2 4,2 C4.55228475,2 5,1.55228475 5,1 C5,0.44771525 4.55228475,1.73472348e-18 4,1.73472348e-18 Z M11,1.73472348e-18 C10.4477153,1.73472348e-18 10,0.44771525 10,1 C10,1.55228475 10.4477153,2 11,2 C11.5522847,2 12,1.55228475 12,1 C12,0.44771525 11.5522847,1.73472348e-18 11,1.73472348e-18 Z M5.23860692,3.00017605 C5.21687055,3.0008678 5.1951896,3.00278288 5.17366558,3.00591232 L1.16666667,3.00591232 C0.5290467,3.00591232 0,3.53864306 0,4.18070311 L0,6.53028469 C0,7.17234486 0.5290467,7.70507548 1.16666667,7.70507548 L1.64746097,7.70507548 C1.6813392,7.71078695 1.71565218,7.71347435 1.75,7.71310635 L1.75,12.4042386 C1.74702483,12.6160745 1.85755226,12.8131136 2.03925916,12.9199058 C2.22096607,13.0266981 2.4457006,13.0266981 2.6274075,12.9199058 C2.80911441,12.8131136 2.91964184,12.6160745 2.91666667,12.4042386 L2.91666667,7.70507548 L5.14746108,7.70507548 C5.21082805,7.71568672 5.27550037,7.71568672 5.33886733,7.70507548 L8.64746108,7.70507548 C8.71082805,7.71568672 8.77550037,7.71568672 8.83886733,7.70507548 L11.0833333,7.70507548 L11.0833333,10.0546571 L4.08333333,10.0546571 L4.08333333,11.2294478 L11.0833333,11.2294478 L11.0833333,12.4042386 C11.0803582,12.6160745 11.1908856,12.8131136 11.3725925,12.9199058 C11.5542994,13.0266981 11.7790339,13.0266981 11.9607408,12.9199058 C12.1424477,12.8131136 12.2529752,12.6160745 12.25,12.4042386 L12.25,7.70507548 L12.8333333,7.70507548 C13.4709534,7.70507548 14,7.17234486 14,6.53028469 L14,4.18070311 C14,3.53864306 13.4709534,3.00591232 12.8333333,3.00591232 L12.335449,3.00591232 C12.3033824,3.00129627 12.2709898,2.99937755 12.2386069,3.00017605 C12.2168705,3.0008678 12.1951896,3.00278288 12.1736656,3.00591232 L8.835449,3.00591232 C8.80338244,3.00129627 8.77098978,2.99937755 8.73860692,3.00017605 C8.71687055,3.0008678 8.6951896,3.00278288 8.67366558,3.00591232 L5.335449,3.00591232 C5.30338244,3.00129627 5.27098978,2.99937755 5.23860692,3.00017605 Z M1,5 L4,5 L1.38330494,7 L1,7 L1,5 Z M5.23093638,5 L7,5 L4.76906334,7 L3,7 L5.23093638,5 Z M9.23093651,5 L11,5 L8.76906349,7 L7,7 L9.23093651,5 Z M12.6166948,5 L13,5 L13,7 L10,7 L12.6166948,5 Z" id="Shape"></path>
                </g>
            </g>
        </g>
    </g>
</svg>

<?xml version="1.0" encoding="utf-8"?>
<!-- Generator: Adobe Illustrator 20.1.0, SVG Export Plug-In . SVG Version: 6.00 Build 0)  -->
<svg version="1.1" id="Layer_1" xmlns="http://www.w3.org/2000/svg" xmlns:xlink="http://www.w3.org/1999/xlink" x="0px" y="0px"
	 viewBox="0 0 14 13" style="enable-background:new 0 0 14 13;" xml:space="preserve">
<style type="text/css">
	.st0{fill:#4D5969;}
</style>
<title>HDL/Icon/Standard/Command/barrier</title>
<desc>Created with Sketch.</desc>
<g id="Colors">
	<g id="Command-Icons" transform="translate(-122.000000, -313.000000)">
		<g id="Barrier" transform="translate(101.000000, 295.000000)">
			<g id="HDL_x2F_Icon_x2F_Standard_x2F_Command_x2F_barrier" transform="translate(21.000000, 18.000000)">
				<path id="Shape" class="st0" d="M4,0C3.4,0,3,0.4,3,1s0.4,1,1,1s1-0.4,1-1S4.6,0,4,0z M11,0c-0.6,0-1,0.4-1,1s0.4,1,1,1
					s1-0.4,1-1S11.6,0,11,0z M5.2,3C5.2,3,5.2,3,5.2,3L1.2,3C0.5,3,0,3.5,0,4.2v2.3c0,0.6,0.5,1.2,1.2,1.2h0.5c0,0,0.1,0,0.1,0v4.7
					c0,0.2,0.1,0.4,0.3,0.5s0.4,0.1,0.6,0s0.3-0.3,0.3-0.5V7.7h2.2c0.1,0,0.1,0,0.2,0h3.3c0.1,0,0.1,0,0.2,0h2.2v2.3h-7v1.2h7v1.2
					c0,0.2,0.1,0.4,0.3,0.5c0.2,0.1,0.4,0.1,0.6,0c0.2-0.1,0.3-0.3,0.3-0.5V7.7h0.6c0.6,0,1.2-0.5,1.2-1.2V4.2C14,3.5,13.5,3,12.8,3
					h-0.5c0,0-0.1,0-0.1,0c0,0,0,0-0.1,0H8.8c0,0-0.1,0-0.1,0c0,0,0,0-0.1,0L5.2,3C5.3,3,5.3,3,5.2,3z M1,5h3L1.4,7H1V5z M5.2,5H7
					L4.8,7H3L5.2,5z M9.2,5H11L8.8,7H7L9.2,5z M12.6,5H13v2h-3L12.6,5z"/>
			</g>
		</g>
	</g>
</g>
</svg>
